X:140
T: Lass of Carracastle
S: Treoir
C: Paddy Sweeney
Z: B.Black
M: 4/4
L: 1/8
R: reel
K: C
E |: G2 cA G2 EG | (3ABc GE FDDF | EC C2 EG G2 |\
(3ABc df eccA |
GAcA G2 EG |cGEG FDDF |EC C2 EG G2 |(3ABc df ec c2 :|
egge f2 de |fedc BG G2 | (3efg eg f2 ef | gfgf eccd |
egge f2 de |fedc BGGB | AGAc BcdB | cegf ec c2 :|
W:
P: version in D
K: D
F |: A2 dB A2 FA | (3Bcd AF GEEG | FD D2 FA A2 |\
(3Bcd eg fddB |
ABdB A2 FA | dAFA GEEG | FD D2 FA A2 | (3Bcd eg fd d2 :|
faaf g2 ef | gfed cA A2 | (3fga fa g2 fg | agag fdde |
faaf g2 ef | gfed cAAc | BABd cdec | dfag fd d2 :|
